X: 17108
T: Heidi Hendi
R: jig
M: 6/8
K: Dminor
|:DFA B2A-|A2A GAF|EFG A2A|GAF AEA|
DFA B2A-|A2A GAF|EFG AFA|EAF AEA:|
|:D2E FED|EFG c2A|AGF EFG|AFA EAF|
D2E FED|EFG c2A|AGF EFG|AFA EAF:|

